IMB-X-Files/The-Ambassadors-Assets/65f43207d485843526416710_accel.svg

<svg fill="none" height="40" viewBox="0 0 119 40" width="119" xmlns="http://www.w3.org/2000/svg" xmlns:xlink="http://www.w3.org/1999/xlink"><clipPath id="a"><path d="m0 0h119v40h-119z"/></clipPath><g clip-path="url(#a)" fill="#000"><path d="m51.8271 19.0381c0 1.3102-1.2835 1.5776-3.396 1.9787-3.4226.6685-5.642 1.6044-5.642 4.5992 0 2.2997 1.7113 3.904 4.4922 3.904 2.1125 0 3.6634-.8289 4.519-2.0322h.0535c.2674 1.337.9627 1.8718 2.4601 1.8718.5348 0 .9894-.0535 1.6311-.2941v-1.337c-1.0963.1069-1.3102-.4011-1.3102-1.3637v-6.4978c0-3.6366-2.2462-4.7864-5.2678-4.7864-4.1179 0-5.8025 2.0589-5.9362 4.6794h2.7275c.1337-1.7648.9626-2.46 3.2087-2.46 1.8718 0 2.4601.7487 2.4601 1.7381zm-3.9308 8.2625c-1.5241 0-2.2728-.6952-2.2728-1.952 0-1.3904 1.0161-2.0589 3.3424-2.567 1.3103-.2674 2.4066-.5882 2.8612-.9091v2.0589c0 2.2194-1.6044 3.3692-3.9308 3.3692zm19.2904-17.3006v7.1128h-.0535c-.7219-1.0428-2.0589-2.0322-4.1714-2.0322-3.5029 0-6.0966 2.7274-6.0966 7.2197s2.5937 7.2197 6.0966 7.2197c2.1125 0 3.4495-1.0428 4.1714-1.9787h.0535v1.5776h2.8077v-19.1189zm-3.7435 17.2204c-2.4601 0-3.7703-2.2461-3.7703-4.9201s1.3102-4.9201 3.7703-4.9201c2.2996 0 3.7168 1.8718 3.7168 4.9201 0 3.0216-1.4172 4.9201-3.7168 4.9201zm15.3874 2.2996c-4.2783 0-6.8721-2.9681-6.8721-7.2197s2.5938-7.2197 6.8721-7.2197c4.2784 0 6.8721 2.9681 6.8721 7.2197s-2.5937 7.2197-6.8721 7.2197zm0-2.2996c2.674 0 4.0645-2.1124 4.0645-4.9201 0-2.8344-1.3905-4.9201-4.0645-4.9201-2.6739 0-4.0644 2.0857-4.0644 4.9201 0 2.8077 1.3905 4.9201 4.0644 4.9201zm16.1661-12.1398c-2.3531 0-3.7703 1.0696-4.4923 2.1392h-.0535v-1.7649h-2.8076v13.664h2.8076v-8.316c0-2.0322 1.3905-3.3425 3.5564-3.3425 1.9253 0 2.7007 1.1766 2.7007 3.0216v8.6369h2.8344v-9.4391c0-3.1285-2.0054-4.5992-4.5457-4.5992zm8.6913-1.9253c.828 0 1.604-.5348 1.604-1.4974 0-.9627-.776-1.4707-1.604-1.4707-.776 0-1.578.508-1.578 1.4707 0 .9626.802 1.4974 1.578 1.4974zm-1.391 2.2996v13.664h2.808v-13.664zm11.572 5.4015c-1.979-.4546-3.503-.5616-3.503-1.952 0-.9627.909-1.6044 2.594-1.6044 2.192 0 2.727 1.0963 2.914 2.1659h2.728c-.187-2.3798-1.952-4.3853-5.669-4.3853-3.423 0-5.402 1.7916-5.402 4.0377 0 3.1018 2.942 3.5296 5.108 4.0377 2.005.4813 3.636.615 3.636 2.3263 0 .8557-.829 1.8183-2.781 1.8183-2.888 0-3.529-1.2567-3.663-2.7274h-2.727c.133 2.8879 2.032 4.9468 6.444 4.9468 3.316 0 5.562-1.6311 5.562-4.2516 0-3.2622-2.728-3.8238-5.241-4.412z"/><path d="m20.4991 19.0494c0-4.2842-3.898-7.7572-3.898-7.7572s-3.898 3.473-3.898 7.7572c0 4.2841 3.898 7.757 3.898 7.757s3.898-3.4729 3.898-7.757z"/><path d="m8.71611 21.3929c3.79779 2.1421 4.92739 7.1764 4.92739 7.1764s-5.02757 1.5614-8.82536-.5807c-3.79778-2.142-4.927515-7.1764-4.927515-7.1764s5.027705-1.5613 8.825485.5807z"/><path d="m24.49 21.3929c-3.7979 2.1421-4.9275 7.1764-4.9275 7.1764s5.0276 1.5614 8.8254-.5807c3.7978-2.142 4.9275-7.1764 4.9275-7.1764s-5.0277-1.5613-8.8254.5807z"/></g></svg>

<svg width="119" height="40" viewBox="0 0 119 40" fill="none" xmlns="http://www.w3.org/2000/svg">
<g clip-path="url(#clip0_6789_20188)">
<path d="M51.8271 19.0381C51.8271 20.3483 50.5436 20.6157 48.4311 21.0168C45.0085 21.6853 42.7891 22.6212 42.7891 25.616C42.7891 27.9157 44.5004 29.52 47.2813 29.52C49.3938 29.52 50.9447 28.6911 51.8003 27.4878H51.8538C52.1212 28.8248 52.8165 29.3596 54.3139 29.3596C54.8487 29.3596 55.3033 29.3061 55.945 29.0655V27.7285C54.8487 27.8354 54.6348 27.3274 54.6348 26.3648V19.867C54.6348 16.2304 52.3886 15.0806 49.367 15.0806C45.2491 15.0806 43.5645 17.1395 43.4308 19.76H46.1583C46.292 17.9952 47.1209 17.3 49.367 17.3C51.2388 17.3 51.8271 18.0487 51.8271 19.0381ZM47.8963 27.3006C46.3722 27.3006 45.6235 26.6054 45.6235 25.3486C45.6235 23.9582 46.6396 23.2897 48.9659 22.7816C50.2762 22.5142 51.3725 22.1934 51.8271 21.8725V23.9314C51.8271 26.1508 50.2227 27.3006 47.8963 27.3006ZM67.1867 10V17.1128H67.1332C66.4113 16.07 65.0743 15.0806 62.9618 15.0806C59.4589 15.0806 56.8652 17.808 56.8652 22.3003C56.8652 26.7926 59.4589 29.52 62.9618 29.52C65.0743 29.52 66.4113 28.4772 67.1332 27.5413H67.1867V29.1189H69.9944V10H67.1867ZM63.4432 27.2204C60.9831 27.2204 59.6729 24.9743 59.6729 22.3003C59.6729 19.6263 60.9831 17.3802 63.4432 17.3802C65.7428 17.3802 67.16 19.252 67.16 22.3003C67.16 25.3219 65.7428 27.2204 63.4432 27.2204ZM78.8306 29.52C74.5523 29.52 71.9585 26.5519 71.9585 22.3003C71.9585 18.0487 74.5523 15.0806 78.8306 15.0806C83.109 15.0806 85.7027 18.0487 85.7027 22.3003C85.7027 26.5519 83.109 29.52 78.8306 29.52ZM78.8306 27.2204C81.5046 27.2204 82.8951 25.108 82.8951 22.3003C82.8951 19.4659 81.5046 17.3802 78.8306 17.3802C76.1567 17.3802 74.7662 19.4659 74.7662 22.3003C74.7662 25.108 76.1567 27.2204 78.8306 27.2204ZM94.9967 15.0806C92.6436 15.0806 91.2264 16.1502 90.5044 17.2198H90.4509V15.4549H87.6433V29.1189H90.4509V20.8029C90.4509 18.7707 91.8414 17.4604 94.0073 17.4604C95.9326 17.4604 96.708 18.637 96.708 20.482V29.1189H99.5424V19.6798C99.5424 16.5513 97.537 15.0806 94.9967 15.0806ZM103.688 13.1553C104.516 13.1553 105.292 12.6205 105.292 11.6579C105.292 10.6952 104.516 10.1872 103.688 10.1872C102.912 10.1872 102.11 10.6952 102.11 11.6579C102.11 12.6205 102.912 13.1553 103.688 13.1553ZM102.297 15.4549V29.1189H105.105V15.4549H102.297ZM113.869 20.8564C111.89 20.4018 110.366 20.2948 110.366 18.9044C110.366 17.9417 111.275 17.3 112.96 17.3C115.152 17.3 115.687 18.3963 115.874 19.4659H118.602C118.415 17.0861 116.65 15.0806 112.933 15.0806C109.51 15.0806 107.531 16.8722 107.531 19.1183C107.531 22.2201 110.473 22.6479 112.639 23.156C114.644 23.6373 116.275 23.771 116.275 25.4823C116.275 26.338 115.446 27.3006 113.494 27.3006C110.606 27.3006 109.965 26.0439 109.831 24.5732H107.104C107.237 27.4611 109.136 29.52 113.548 29.52C116.864 29.52 119.11 27.8889 119.11 25.2684C119.11 22.0062 116.382 21.4446 113.869 20.8564Z" fill="black"/>
<path d="M20.4991 19.0494C20.4991 14.7652 16.6011 11.2922 16.6011 11.2922C16.6011 11.2922 12.7031 14.7652 12.7031 19.0494C12.7031 23.3335 16.6011 26.8064 16.6011 26.8064C16.6011 26.8064 20.4991 23.3335 20.4991 19.0494Z" fill="black"/>
<path d="M8.71611 21.3929C12.5139 23.535 13.6435 28.5693 13.6435 28.5693C13.6435 28.5693 8.61593 30.1307 4.81814 27.9886C1.02036 25.8466 -0.109375 20.8122 -0.109375 20.8122C-0.109375 20.8122 4.91833 19.2509 8.71611 21.3929Z" fill="black"/>
<path d="M24.49 21.3929C20.6921 23.535 19.5625 28.5693 19.5625 28.5693C19.5625 28.5693 24.5901 30.1307 28.3879 27.9886C32.1857 25.8466 33.3154 20.8122 33.3154 20.8122C33.3154 20.8122 28.2877 19.2509 24.49 21.3929Z" fill="black"/>
</g>
<defs>
<clipPath id="clip0_6789_20188">
<rect width="119" height="40" fill="white"/>
</clipPath>
</defs>
</svg>
